svg/color/marinade.svg

<svg width="64" height="65" viewBox="0 0 64 65" fill="none" xmlns="http://www.w3.org/2000/svg">
<rect y="0.303711" width="64" height="64" rx="32" fill="#0C9790"/>
<rect x="0.5" y="0.803711" width="63" height="63" rx="31.5" stroke="#070B14" stroke-opacity="0.15"/>
<path d="M54.9989 24.1191C54.9989 19.3383 50.9808 16 45.2289 16C40.5522 16 37.3288 18.3376 33.596 21.0448C32.9714 21.4971 32.3258 21.966 31.6602 22.4328C29.7397 23.7779 27.7443 25.0901 25.9235 26.2493C25.7417 26.3655 25.5151 26.3809 25.3201 26.2908C23.8717 25.6242 21.0029 24.5559 17.4754 24.5559C9.64339 24.5559 8 28.9103 8 32.5636C8 35.465 9.72204 37.8808 12.9783 39.5493C13.9796 40.0621 14.9762 40.4268 15.7885 40.6756C16.4201 40.8699 16.9213 41.3542 17.1338 41.9842C17.3462 42.6141 17.5974 43.2891 17.9085 43.983C18.2525 44.7503 18.6633 45.5923 19.127 46.4865C19.6235 47.441 20.606 48 21.6215 48C21.9877 48 22.3586 47.9277 22.712 47.775C27.9168 45.5284 36.0764 42.7301 45.3943 42.1546C47.0131 42.0539 48.2409 40.6934 48.1904 39.0556C48.1671 38.2893 48.1283 37.5753 48.0767 36.9346C48.0379 36.4539 47.9861 35.979 47.9322 35.5407C47.8302 34.7094 48.1565 33.8841 48.7998 33.3546C49.443 32.8254 50.1814 32.1811 50.9326 31.4375C53.6313 28.7671 55 26.3051 55 24.1191H54.9989ZM22.949 44.8571C22.6991 44.9576 22.4313 45.0156 22.1625 44.9955C21.5086 44.9459 20.9136 44.5349 20.646 43.8979C20.5039 43.559 20.3701 43.2322 20.2304 42.9233C19.9358 42.2659 19.6904 41.592 19.5026 41.0213C19.3218 40.4707 19.5672 39.8691 20.0825 39.6133C21.2328 39.0413 23.1039 38.3473 24.9141 37.8643C25.0889 37.8181 25.2416 37.7032 25.3225 37.5408C25.9859 36.2192 24.9211 35.1867 23.9093 35.471C23.8448 35.4887 22.3047 35.9198 20.6999 36.5427C19.748 36.9121 18.9838 37.2615 18.3828 37.6095C17.5059 38.1176 16.4565 38.2243 15.5092 37.8653C13.334 37.0411 10.5484 35.4258 10.5484 32.5659C10.5484 30.0365 11.3349 27.1341 17.4707 27.1341C18.9873 27.1341 20.3713 27.3685 21.5299 27.6727C22.0874 27.8197 22.1931 28.5729 21.6977 28.8724C20.1236 29.8258 19.1094 30.412 19.0835 30.4274C18.472 30.7801 18.2595 31.5678 18.6093 32.1847C18.9591 32.8017 19.7397 33.016 20.3513 32.663C20.3924 32.6395 22.9573 31.1556 26.3226 29.0371C26.3402 29.0264 26.3578 29.0146 26.3754 29.004C28.4544 27.6954 30.8326 26.1464 33.1099 24.5525C33.7931 24.074 34.4482 23.5991 35.0809 23.1408C38.5941 20.5936 41.3692 18.5804 45.2242 18.5804C49.5415 18.5804 52.4422 20.8079 52.4422 24.1238C52.4422 26.53 49.2716 29.6504 47.0766 31.4493C46.4755 31.9419 45.6984 32.1526 44.9295 32.0532C44.7088 32.0249 44.4869 31.9999 44.265 31.9787C43.7968 31.9349 43.5267 31.4208 43.7533 31.0041C44.8497 28.9943 45.3099 27.757 45.3356 27.6871C45.5798 27.0203 45.2441 26.2814 44.5832 26.0339C43.9234 25.7851 43.1887 26.125 42.9422 26.7905C42.9352 26.8106 42.2155 28.7267 40.4136 31.6649C40.3046 31.8424 40.1166 31.9573 39.9089 31.974C39.4616 32.0095 39.1177 31.5842 39.2374 31.1498C39.552 30.0094 39.6061 29.487 39.6131 29.4029C39.6729 28.6948 39.1542 28.0625 38.4509 28.002C37.7455 27.9429 37.1304 28.458 37.0706 29.1674C37.0706 29.1768 36.9708 30.0235 36.2652 32.1148C36.189 32.3422 35.9953 32.5127 35.7617 32.5601C34.117 32.887 33.0172 33.2173 32.9009 33.2528C32.226 33.4588 31.8446 34.1765 32.0487 34.8574C32.2519 35.5373 32.9633 35.9245 33.6393 35.7185C33.6698 35.7088 34.9786 35.3182 36.8815 34.9747L36.9403 34.9665C37.0517 34.9569 37.6292 34.848 37.6551 34.8433C39.4782 34.5556 41.7014 34.3494 43.8483 34.5282C44.6594 34.5958 45.3156 35.2222 45.4132 36.037C45.4554 36.3947 45.4941 36.7712 45.5259 37.1502C45.5539 37.4959 45.5774 37.8653 45.5974 38.2549C45.6173 38.6447 45.5106 39.4973 44.6384 39.5386C43.8672 39.5754 40.491 39.5932 33.7345 41.2262C28.579 42.4719 23.9808 44.4449 22.9456 44.8629L22.949 44.8571Z" fill="white"/>
</svg>

<svg xmlns="http://www.w3.org/2000/svg" width="64" height="65" fill="none" viewBox="0 0 64 65"><rect width="64" height="64" y=".304" fill="#0C9790" rx="32"/><rect width="63" height="63" x=".5" y=".804" stroke="#070B14" stroke-opacity=".15" rx="31.5"/><path fill="#fff" d="M54.999 24.12c0-4.782-4.018-8.12-9.77-8.12-4.677 0-7.9 2.338-11.633 5.045-.625.452-1.27.921-1.936 1.388a159 159 0 0 1-5.736 3.816.63.63 0 0 1-.604.042c-1.448-.667-4.317-1.735-7.845-1.735C9.643 24.556 8 28.91 8 32.564c0 2.901 1.722 5.317 4.978 6.985 1.002.513 1.998.878 2.81 1.127a2.06 2.06 0 0 1 1.346 1.308c.212.63.463 1.305.774 1.999.345.767.755 1.61 1.219 2.504A2.82 2.82 0 0 0 21.622 48c.366 0 .737-.072 1.09-.225 5.205-2.247 13.364-5.045 22.682-5.62 1.62-.101 2.847-1.462 2.796-3.1a43 43 0 0 0-.113-2.12c-.04-.481-.09-.956-.145-1.394a2.44 2.44 0 0 1 .868-2.186 31 31 0 0 0 2.133-1.917C53.63 28.768 55 26.305 55 24.119zm-32.05 20.737c-.25.1-.518.159-.787.139a1.8 1.8 0 0 1-1.516-1.098c-.142-.339-.276-.666-.416-.975a20 20 0 0 1-.727-1.902 1.164 1.164 0 0 1 .58-1.408c1.15-.572 3.02-1.266 4.831-1.749a.63.63 0 0 0 .409-.323c.663-1.322-.402-2.354-1.414-2.07-.064.018-1.604.449-3.21 1.072-.951.37-1.715.718-2.316 1.066a3.35 3.35 0 0 1-2.874.256c-2.175-.824-4.96-2.44-4.96-5.3 0-2.528.786-5.43 6.922-5.43 1.516 0 2.9.233 4.059.538.557.147.663.9.168 1.2-1.574.953-2.589 1.539-2.614 1.554a1.295 1.295 0 0 0-.475 1.758 1.27 1.27 0 0 0 1.742.478 205 205 0 0 0 5.972-3.626l.052-.033a169 169 0 0 0 6.735-4.452c.683-.478 1.338-.953 1.97-1.411 3.514-2.547 6.29-4.56 10.144-4.56 4.318 0 7.218 2.227 7.218 5.543 0 2.406-3.17 5.526-5.365 7.325a2.8 2.8 0 0 1-2.148.604q-.33-.042-.664-.074a.66.66 0 0 1-.512-.975c1.097-2.01 1.557-3.247 1.583-3.317a1.29 1.29 0 0 0-.753-1.653 1.273 1.273 0 0 0-1.64.757c-.008.02-.727 1.936-2.53 4.874a.65.65 0 0 1-.504.309.65.65 0 0 1-.672-.824c.315-1.14.37-1.663.376-1.747a1.29 1.29 0 0 0-1.162-1.401 1.27 1.27 0 0 0-1.38 1.165c0 .01-.1.856-.806 2.948a.68.68 0 0 1-.503.445 32 32 0 0 0-2.861.693 1.29 1.29 0 0 0-.852 1.604c.203.68.914 1.068 1.59.861.03-.01 1.34-.4 3.242-.743l.06-.008c.11-.01.688-.119.714-.124 1.823-.287 4.046-.494 6.193-.315a1.72 1.72 0 0 1 1.565 1.509c.042.358.081.734.113 1.113q.041.52.071 1.105c.02.39-.086 1.242-.959 1.284-.77.036-4.147.054-10.904 1.687-5.155 1.246-9.753 3.219-10.788 3.637z"/></svg>
